X: 4
T: the Cat in Pattens
R: jig
M: 6/8
L: 1/8
Z: 2010,2014 John Chambers <jc:trillian.mit.edu>
B: Longman ed. "Twenty Four Country Dances", p.26 London 1770
K: Bb
|: FBB Fcc | Fdd Fee | dfe dcB | AcB AGF |\
   FBB Fcc | Fdd Fee | dfB cBA | BFD B,3 :|
|: dff Bff | egg Bgg | dff Bff | AcB AGF |\
   dff Bff | egg Bgg | dfB cBA | BFD B,3 :|
% - - - - - - - - - - - - - - - - - - - - - - - - -
%%begintext align
%% The two First Cu: Clap Hands with each other
%% Eight times and half Right and Left .|
%% the same again and half right and left Back .|.
%% lead Down & up Cast off :|.
%% and Right and Left with the Top :|:
%%endtext
% - - - - - - - - - - - - - - - - - - - - - - - - -
